X:193
T: Bettelfrau und Bettelmann (2-97) S. 283
N: P0968
O: Lothringen
S: PINCK, Louis: Verklingende Weisen, Bd 2, Metz 1928]
R: ???]
M: 2/4
L: 1/16
K: G
z2G2G2B2 | d2ddd2
d2 | e2d2c2B2 | c2
e2d2c2 | B2A2B2
d2 | c2B2A3d | d6z2 |
d4d4 | B2BAG4 | B2B2A2A2 | F6z2 |
d4d4 | f4e4 | d2F2G4

@@@ Tune index: 7743
